img/tobewatched.svg

<?xml version="1.0" encoding="UTF-8"?>
<!-- Generated by Pixelmator Pro 3.1.1 -->
<svg width="500" height="500" viewBox="0 0 500 500" xmlns="http://www.w3.org/2000/svg" xmlns:xlink="http://www.w3.org/1999/xlink">
    <path id="path2" fill="currentcolor" fill-rule="evenodd" stroke="none" d="M 250 500 C 386.764709 500 500 386.519592 500 250 C 500 113.235291 386.519623 0 249.754898 0 C 113.235291 0 0 113.235291 0 250 C 0 386.519592 113.480392 500 250 500 Z M 250 458.333344 C 134.313721 458.333344 41.911766 365.686279 41.911766 250 C 41.911766 134.313721 134.068634 41.666656 249.754898 41.666656 C 365.441162 41.666656 458.333344 134.313721 458.333344 250 C 458.333344 365.686279 365.686279 458.333344 250 458.333344 Z M 136.274506 250 C 136.274506 262.009827 144.607849 270.098022 157.107849 270.098022 L 229.166672 270.098022 L 229.166672 342.401978 C 229.166672 354.65686 237.5 363.235291 249.509811 363.235291 C 261.764709 363.235291 270.34314 354.901978 270.34314 342.401978 L 270.34314 270.098022 L 342.647064 270.098022 C 354.901947 270.098022 363.480377 262.009827 363.480377 250 C 363.480377 237.745087 354.901947 229.166656 342.647064 229.166656 L 270.34314 229.166656 L 270.34314 157.107849 C 270.34314 144.607849 261.764709 136.029419 249.509811 136.029419 C 237.5 136.029419 229.166672 144.607849 229.166672 157.107849 L 229.166672 229.166656 L 157.107849 229.166656 C 144.607849 229.166656 136.274506 237.745087 136.274506 250 Z"/>
</svg>

<svg width="500" height="500" viewBox="0 0 500 500" xmlns="http://www.w3.org/2000/svg" xmlns:xlink="http://www.w3.org/1999/xlink">
	<path id="path2" fill="currentcolor" fill-rule="evenodd" stroke="none" d="M250 500c136.76 0 250-113.48 250-250C500 113.24 386.52 0 249.75 0 113.24 0 0 113.24 0 250c0 136.52 113.48 250 250 250Zm0-41.67C134.31 458.33 41.91 365.7 41.91 250c0-115.69 92.16-208.33 207.84-208.33 115.7 0 208.58 92.64 208.58 208.33A207.54 207.54 0 0 1 250 458.33ZM136.27 250c0 12.01 8.34 20.1 20.84 20.1h72.06v72.3c0 12.26 8.33 20.84 20.34 20.84 12.25 0 20.83-8.34 20.83-20.84v-72.3h72.3c12.26 0 20.84-8.09 20.84-20.1 0-12.25-8.58-20.83-20.83-20.83h-72.3V157.1c0-12.5-8.59-21.08-20.84-21.08-12.01 0-20.34 8.58-20.34 21.08v72.06H157.1c-12.5 0-20.84 8.58-20.84 20.83Z"/>
</svg>
